!!!OTL: Wo' as sech dann dee Bauer, S. 15
!!!id: R0045
**kern
*clefG2
*k[]
*C:
{4g
=1
4.cc
8b
4cc
4dd
=2
2ee
2cc}
=3
{2dd
4cc
4b
=4
2a}
4r
=5
{4g
=6
4.g
8g
4g
4b
=7
2dd
2dd}
=8
{2dd
4cc
4b
=9
2a}
2r
=10
{4.g
8g
4g
4b
=11
4dd
4dd
2dd}
=12
{4dd
4dd
4.b
8g
=13
8a
8a
4a
2g}
=14
{4g
4b
4.dd
8g
=15
2a
4g}
==
*-
!!!minrhy: 8
!!!meters: 4/4 ]  ZZ[7
!!!cut: Wo' as sech dann dee Bauer, S. 15
!!!reg: Luxemburg
!!!trd: D'Fraen um Kanddaaf an der aler Zeit, Luxemburg 1929
!!!rhy1: X_  X_.XX_X_  X__X__
!!!rhy2: X__X_X_  X__0_
!!!key: R0045  08  C 4/4 ]  ZZ[7
!!!mod: SECHSTONSKALA DUR ?]  AMBITUS[6
!!!kad: +16+26+255
!!!akz: +1+1+3+1_+2+16_55+2+2_+2+16_55+2+2_+2765_5+265_
!!!fot: 'a__b__c__b__cv_d__e__
!!!for: 'a__b__a__bv_c__d__e__
!!!fok: '^a_\__/__\__/__\__^__
!! PHRAS[VORWIEGEND VOLLTAKTIG]
!!!fkt: ??
!! RUDEN, J.M.:
!! PR[49] 2K[6] 2G[6] 3K[6] 3G[9] 4A[0] 4Ü[0] 5A[0] 6K[0] 6G[0]
!! 7K[0] 7G[0] 8A[0] MEHR[0] SI[26] ABS[35] SR[11] SP[14]
!! ST[9] 2k[0] 2g[11] 3k[6] 3g[0] 4d[6] 4ü[0] 5d[3] 6k[0] 6g[0]
!! 7k[0] 7g[0] 8d[0] mehr[0] si[26] dm[0] sr[11] sp[14]
!! 1F[43] 2F[38] 3F[11] 4F[0] LF[0] 2P[5] 3P[3] 4P[0] TRI[0] DF[5] AB[37]
!! TF[0] U3K[0] U3[0] U4[0] U4Ü[0] U5[0] U6K[0] U6[0] U7K[0] U7[0]
!! N1[3] N2K[0] N2[14] N3K[0] N3[31] N4[11] N4Ü[0] N5[31] N6K[0] N6[11]
!!!n7k: 0] N7[0] O1[0] O2K[0] O2[0] O3K[0] O3[0] HÖ[0
